!!!OTL: 49. Freylekhs
!!!Genre:	Freylekhs
!!!Mode:	Minor
!!!Listening/dance:	listening
!!!One_Mode:	no
**kern
*thru
*I"P1
*clefG2
*k[b-e-]
*B-:
!LO:TX:a:i:t=Bb-major
8ee-L
16ffL
16ee-JJ
24ddLL
24ee-
24ddJ
8ccJ
*>C1
=26
(16ccLL
16b-
16a
16gJJ
8fL)
[8ffJ
=27
8ffL]
24ee-L
24ff
24ee-JJ
8ddL
8ccJ
=28
8ddL
8b-J
8r
16b-LL
16b-JJ
*>C
=21!|:
!!!End-Modulation
*B-:
!LO:TX:a:i:t=Bb-major
8ee-L
16ffL
16ee-JJ
24ddLL
24ee-
24ddJ
8ccJ
*>C2
=29:|!
16ccLL
16b-
16a
16gJJ
4f
=30
8ffL
16ffL
16ee-JJ
8ddL
8ccJ
=31
!LO:TX:b:Bi:t=Da Capo al Fine
4b-
8r
8d
!!!End-Modulation
==
*-
